_theme_inc/iconsets/psx-color/updown.svg

<svg enable-background="new 0 0 20.025 19.866" height="19.866" viewBox="0 0 20.025 19.866" width="20.025" xmlns="http://www.w3.org/2000/svg" xmlns:xlink="http://www.w3.org/1999/xlink"><linearGradient id="a"><stop offset=".3" stop-color="#1e1e1e"/><stop offset="1" stop-color="#5b5b5f"/></linearGradient><linearGradient id="b" gradientUnits="userSpaceOnUse" x1="10.0137" x2="10.0137" xlink:href="#a" y1="8.5313" y2="0"/><linearGradient id="c"><stop offset="0" stop-color="#141414"/><stop offset=".2261" stop-color="#181818"/><stop offset=".4603" stop-color="#242425"/><stop offset=".6982" stop-color="#373739"/><stop offset=".9374" stop-color="#535356"/><stop offset="1" stop-color="#5b5b5f"/></linearGradient><linearGradient id="d" gradientUnits="userSpaceOnUse" x1="10.0137" x2="10.0137" xlink:href="#c" y1="8.5313" y2="0"/><linearGradient id="e" gradientTransform="matrix(-1 0 0 -1 -87.4082 -241.8477)" gradientUnits="userSpaceOnUse" x1="-97.4224" x2="-97.4224" xlink:href="#a" y1="-261.7139" y2="-253.1826"/><linearGradient id="f" gradientUnits="userSpaceOnUse" x1="10.0137" x2="10.0137" xlink:href="#c" y1="19.8662" y2="11.335"/><linearGradient id="g" gradientTransform="matrix(0 1 -1 0 -155.2939 117.4473)" gradientUnits="userSpaceOnUse" x1="-104.1772" x2="-110.8491" xlink:href="#a" y1="-171.0537" y2="-171.0537"/><linearGradient id="h" gradientUnits="userSpaceOnUse" x1="15.7598" x2="15.7598" y1="13.2695" y2="6.5977"><stop offset="0" stop-color="#141414"/><stop offset=".2325" stop-color="#181818"/><stop offset=".4734" stop-color="#242425"/><stop offset=".7181" stop-color="#373739"/><stop offset=".9641" stop-color="#525256"/><stop offset="1" stop-color="#57575b"/></linearGradient><linearGradient id="i" gradientTransform="matrix(0 -1 1 0 63.2197 30.7051)" gradientUnits="userSpaceOnUse" x1="17.4355" x2="24.1074" xlink:href="#a" y1="-58.9541" y2="-58.9541"/><linearGradient id="j" gradientUnits="userSpaceOnUse" x1="4.2656" x2="4.2656" xlink:href="#c" y1="13.2695" y2="6.5977"/><path d="m13.35 5.557-3.336 2.975-3.337-2.975v-4.442c0-.616.499-1.115 1.115-1.115h4.442c.616 0 1.115.499 1.115 1.115v4.442z" fill="url(#b)"/><path d="m12.234.65c.256 0 .465.209.465.465v4.15l-2.685 2.395-2.687-2.394v-4.15c0-.256.209-.465.465-.465h4.442m0-.651h-4.442c-.616 0-1.115.499-1.115 1.115v4.441l3.337 2.975 3.336-2.975v-4.441c0-.616-.499-1.115-1.116-1.115z" fill="url(#d)"/><path d="m6.677 14.309 3.337-2.974 3.336 2.974v4.441c0 .617-.499 1.116-1.115 1.116h-4.443c-.616 0-1.115-.499-1.115-1.116z" fill="url(#e)"/><path d="m10.014 12.206 2.686 2.394v4.15c0 .257-.209.467-.465.467h-4.443c-.256 0-.465-.21-.465-.467v-4.15zm0-.871-3.337 2.974v4.441c0 .617.499 1.116 1.115 1.116h4.442c.616 0 1.115-.499 1.115-1.116v-4.441z" fill="url(#f)"/><path d="m14.469 13.27-2.975-3.337 2.975-3.335h4.441c.617 0 1.115.499 1.115 1.115v4.441c0 .615-.5 1.115-1.115 1.115h-4.441z" fill="url(#g)"/><path d="m18.91 7.248c.256 0 .465.208.465.465v4.441c0 .256-.209.464-.465.464h-4.15l-2.394-2.686 2.394-2.685h4.15m0-.649h-4.441l-2.975 3.335 2.975 3.337h4.441c.615 0 1.115-.5 1.115-1.115v-4.442c0-.616-.498-1.115-1.115-1.115z" fill="url(#h)"/><path d="m5.558 6.598 2.974 3.335-2.974 3.337h-4.443c-.615 0-1.115-.5-1.115-1.116v-4.442c0-.615.5-1.114 1.115-1.114z" fill="url(#i)"/><path d="m5.267 7.248 2.393 2.685-2.394 2.686h-4.151c-.256 0-.465-.208-.465-.464v-4.443c0-.256.209-.464.465-.464zm.291-.65h-4.443c-.615 0-1.115.499-1.115 1.114v4.442c0 .615.5 1.115 1.115 1.115h4.442l2.974-3.337z" fill="url(#j)"/></svg>

<?xml version="1.0" encoding="UTF-8"?>
<!-- Generator: Adobe Illustrator 16.0.0, SVG Export Plug-In . SVG Version: 6.00 Build 0)  -->
<!DOCTYPE svg PUBLIC "-//W3C//DTD SVG 1.1//EN" "http://www.w3.org/Graphics/SVG/1.1/DTD/svg11.dtd">
<svg version="1.1" id="Capa_1" xmlns="http://www.w3.org/2000/svg" xmlns:xlink="http://www.w3.org/1999/xlink" x="0px" y="0px" width="20.025px" height="19.866px" viewBox="0 0 20.025 19.866" enable-background="new 0 0 20.025 19.866" xml:space="preserve">
<g>
	<g>
		<linearGradient id="SVGID_1_" gradientUnits="userSpaceOnUse" x1="10.0137" y1="8.5313" x2="10.0137" y2="0">
			<stop offset="0.3" style="stop-color:#1E1E1E"/>
			<stop offset="1" style="stop-color:#5B5B5F"/>
		</linearGradient>
		<path fill="url(#SVGID_1_)" d="M13.35,5.557l-3.336,2.975L6.677,5.557V1.115C6.677,0.499,7.176,0,7.792,0h4.442    c0.616,0,1.115,0.499,1.115,1.115V5.557z" style="fill: white;"/>
		<linearGradient id="SVGID_2_" gradientUnits="userSpaceOnUse" x1="10.0137" y1="8.5313" x2="10.0137" y2="0">
			<stop offset="0" style="stop-color:#141414"/>
			<stop offset="0.2261" style="stop-color:#181818"/>
			<stop offset="0.4603" style="stop-color:#242425"/>
			<stop offset="0.6982" style="stop-color:#373739"/>
			<stop offset="0.9374" style="stop-color:#535356"/>
			<stop offset="1" style="stop-color:#5B5B5F"/>
		</linearGradient>
		<path fill="url(#SVGID_2_)" d="M12.234,0.65c0.256,0,0.465,0.209,0.465,0.465v4.15L10.014,7.66L7.327,5.266v-4.15    c0-0.256,0.209-0.465,0.465-0.465H12.234 M12.234,0H7.792C7.176,0,6.677,0.499,6.677,1.115v4.441l3.337,2.975l3.336-2.975V1.115    C13.35,0.499,12.851,0,12.234,0L12.234,0z"/>
	</g>
	<g>
		
			<linearGradient id="SVGID_3_" gradientUnits="userSpaceOnUse" x1="-97.4224" y1="-261.7139" x2="-97.4224" y2="-253.1826" gradientTransform="matrix(-1 0 0 -1 -87.4082 -241.8477)">
			<stop offset="0.3" style="stop-color:#1E1E1E"/>
			<stop offset="1" style="stop-color:#5B5B5F"/>
		</linearGradient>
		<path fill="url(#SVGID_3_)" d="M6.677,14.309l3.337-2.974l3.336,2.974v4.441c0,0.617-0.499,1.116-1.115,1.116H7.792    c-0.616,0-1.115-0.499-1.115-1.116V14.309z" style="fill: white;"/>
		<linearGradient id="SVGID_4_" gradientUnits="userSpaceOnUse" x1="10.0137" y1="19.8662" x2="10.0137" y2="11.335">
			<stop offset="0" style="stop-color:#141414"/>
			<stop offset="0.2261" style="stop-color:#181818"/>
			<stop offset="0.4603" style="stop-color:#242425"/>
			<stop offset="0.6982" style="stop-color:#373739"/>
			<stop offset="0.9374" style="stop-color:#535356"/>
			<stop offset="1" style="stop-color:#5B5B5F"/>
		</linearGradient>
		<path fill="url(#SVGID_4_)" d="M10.014,12.206l2.686,2.394v4.15c0,0.257-0.209,0.467-0.465,0.467H7.792    c-0.256,0-0.465-0.21-0.465-0.467V14.6L10.014,12.206 M10.014,11.335l-3.337,2.974v4.441c0,0.617,0.499,1.116,1.115,1.116h4.442    c0.616,0,1.115-0.499,1.115-1.116v-4.441L10.014,11.335L10.014,11.335z"/>
	</g>
	<g>
		
			<linearGradient id="SVGID_5_" gradientUnits="userSpaceOnUse" x1="-104.1772" y1="-171.0537" x2="-110.8491" y2="-171.0537" gradientTransform="matrix(0 1 -1 0 -155.2939 117.4473)">
			<stop offset="0.3" style="stop-color:#1E1E1E"/>
			<stop offset="1" style="stop-color:#5B5B5F"/>
		</linearGradient>
		<path fill="url(#SVGID_5_)" d="M14.469,13.27l-2.975-3.337l2.975-3.335h4.441c0.617,0,1.115,0.499,1.115,1.115v4.441    c0,0.615-0.5,1.115-1.115,1.115H14.469z"/>
		<linearGradient id="SVGID_6_" gradientUnits="userSpaceOnUse" x1="15.7598" y1="13.2695" x2="15.7598" y2="6.5977">
			<stop offset="0" style="stop-color:#141414"/>
			<stop offset="0.2325" style="stop-color:#181818"/>
			<stop offset="0.4734" style="stop-color:#242425"/>
			<stop offset="0.7181" style="stop-color:#373739"/>
			<stop offset="0.9641" style="stop-color:#525256"/>
			<stop offset="1" style="stop-color:#57575B"/>
		</linearGradient>
		<path fill="url(#SVGID_6_)" d="M18.91,7.248c0.256,0,0.465,0.208,0.465,0.465v4.441c0,0.256-0.209,0.464-0.465,0.464h-4.15    l-2.394-2.686l2.394-2.685H18.91 M18.91,6.598h-4.441l-2.975,3.335l2.975,3.337h4.441c0.615,0,1.115-0.5,1.115-1.115V7.713    C20.025,7.097,19.527,6.598,18.91,6.598L18.91,6.598z"/>
	</g>
	<g>
		
			<linearGradient id="SVGID_7_" gradientUnits="userSpaceOnUse" x1="17.4355" y1="-58.9541" x2="24.1074" y2="-58.9541" gradientTransform="matrix(0 -1 1 0 63.2197 30.7051)">
			<stop offset="0.3" style="stop-color:#1E1E1E"/>
			<stop offset="1" style="stop-color:#5B5B5F"/>
		</linearGradient>
		<path fill="url(#SVGID_7_)" d="M5.558,6.598l2.974,3.335L5.558,13.27H1.115C0.5,13.27,0,12.77,0,12.154V7.712    c0-0.615,0.5-1.114,1.115-1.114H5.558z"/>
		<linearGradient id="SVGID_8_" gradientUnits="userSpaceOnUse" x1="4.2656" y1="13.2695" x2="4.2656" y2="6.5977">
			<stop offset="0" style="stop-color:#141414"/>
			<stop offset="0.2261" style="stop-color:#181818"/>
			<stop offset="0.4603" style="stop-color:#242425"/>
			<stop offset="0.6982" style="stop-color:#373739"/>
			<stop offset="0.9374" style="stop-color:#535356"/>
			<stop offset="1" style="stop-color:#5B5B5F"/>
		</linearGradient>
		<path fill="url(#SVGID_8_)" d="M5.267,7.248L7.66,9.933l-2.394,2.686H1.115c-0.256,0-0.465-0.208-0.465-0.464V7.712    c0-0.256,0.209-0.464,0.465-0.464H5.267 M5.558,6.598H1.115C0.5,6.598,0,7.097,0,7.712v4.442c0,0.615,0.5,1.115,1.115,1.115h4.442    l2.974-3.337L5.558,6.598L5.558,6.598z"/>
	</g>
</g>
</svg>
